X:1
T:Title
%%score ( 1 2 ) { 3 | 4 }
L:1/8
Q:1/4=100
M:3/8
K:G
V:1 treble nm="Grand Piano, Piano"
V:2 treble 
V:3 bass nm="Grand Piano, Piano"
V:4 bass 
V:1
 [GB]2 [FA] | [EG]2 E | [^DF][DG][DF] | E3 | [GB]2 [FA] | [EG]2 E | [^DF][DG][DF] | E3 | %8
w: 1.~We~ three~|kings~ of~|O ri ent~|are;~|bear ing~|gifts~ we~|tra verse~ a|far,~|
 [EG]2 [EG] | [FA]2 [FA] | [GB]2 [GB] | [Gd][Fc][GB] | [EA][EB][EA] | [EG]2 [^DF] | E3- | E3 | %16
w: field~ and~|foun tain,~|moor~ and~|moun * tain,~|fol lo wing~|yon der~|star.~||
 D3- | [DA]3 | [DG]2 [DG] | [DG]2 [B,D] | [EG]2 [CE] | [DG]3 | [DG]2 [DG] | [DG]2 [B,D] | %24
w: ||||||||
 [EG]2 [CE] | [DG]3 | [EG]2 [EG] | [FA]2 [GB] | [Gc]2 [GB] | [FA]2 [GB] | [DG]2 [DG] | %31
w: |||||||
 [DG]2 [B,D] | [EG]2 [CE] | [DG]3 |] %34
w: |||
V:2
 x3 | x3 | x3 | x3 | x3 | x3 | x3 | x3 | x3 | x3 | x3 | x3 | x3 | x3 | x3 | x3 | F3 | x3 | x3 | %19
 x3 | x3 | x3 | x3 | x3 | x3 | x3 | x3 | x3 | x3 | x3 | x3 | x3 | x3 | x3 |] %34
V:3
 B,2 B, | B,2 G, | A,B,A, | G,3 | B,2 B, | B,2 G, | A,B,A, | G,3 | B,2 B, | D2 D | D2 D | B,CD | %12
 CCC | B,2 A, | G,3- | G,3 | A,3 | C3 | B,2 B, | B,2 G, | G,2 G, | B,3 | B,2 B, | B,2 G, | G,2 G, | %25
 B,3 | B,2 B, | D2 D | E2 D | D2 D | B,2 B, | B,2 G, | G,2 G, | B,3 |] %34
V:4
 E,2 E, | E,2 E, | B,,B,,B,, | E,3 | E,2 E, | E,2 E, | B,,B,,B,, | E,3 | E,2 E, | D,2 D, | G,2 G, | %11
 z A,G, | A,A,A, | z z B,, | E,3- | E,3 | D,3- | D,3 | G,2 G, | G,2 z | C,2 C, | [G,,G,]3 | %22
 G,2 G, | G,2 z | C,2 C, | [G,,G,]3 | E,2 E, | D,2 G, | C,2 G, | D,2 G, | G,2 G, | G,2 z | C,2 C, | %33
 [G,,G,]3 |] %34

